X:4
T:Victory Fanfare
C:AI Composer
M:4/4
L:1/8
Q:1/4=120
K:G
V:1 name="Triumph"
"G"G2 B2 d2 g2 | "D"f2 a2 d'2 a2 | "Em"g2 e2 b2 g2 | "C"e2 c2 g2 e2 |
"G"d2 B2 G2 d2 | "Am"c2 e2 a2 e2 | "D"d2 f2 a2 f2 | "G"g4 g4 |
"C"c'2 g2 e2 c2 | "G"b2 g2 d2 B2 | "Am"a2 e2 c2 A2 | "D"f2 d2 A2 F2 |
"G"g2 d2 B2 G2 | "C"e2 g2 c'2 g2 | "D"f2 a2 "G"g2 b2 | "G"g4 g4 |]

